!!!ONB: MCCC : IEG0138_03 : Extracted Monophonic Melody
!!!COM: Grieg, Edvard
!!!OPR: Violin Sonata No.3, Op.45
!!!OMV: 3
!!!SCT: Op.45
!!!ODT: 1887///
**kern
*staff1
*clefG2
*k[b-e-a-d-]
*A-:
*M2/2
4g
=4
4g
4c
4c
4g
=5
4g
4c
4c
4g
=6
4g
8a-
8g
8e-
8f
4g
=7
1g
=8
1r
=9
2r
4r
4g
=10
4b-
8a-
8g
8e-
8f
4g
=11
1g
=12
1r
=13
2r
4r
4a-
=14
1g
=15
2r
8r
16r
16a-
4b-
=16
1g
=17
2r
4r
12a-
12cc
12cc-
=18
2g
4r
12a-
12cc
12cc-
=19
2g
4r
12a-
12cc
12cc-
=20
2g
2ddd
=21
1r
=22
2r
4r
4g[
=23
4g]
2g
4g[
=24
4g]
2g
4g[
=25
4g]
2g
4g[
=26
4g]
2g
4g[
=27
4g]
2g
4g
=28
4g
8a-
8g
8e-
8f
4g
=29
2.g
4g[
=30
4g]
2g
4g[
=31
4g]
2g
4g
=32
4b-
8a-
8g
8e-
8f
4g
=33
1g
=34
4r
2b-
4b-[
=35
4b-]
2b-
4b-[
=36
4b-]
2b-
4b-[
=37
4b-]
2b-
4b-
=38
4b-
8cc
8b-
8g-
8a-
4b-
=39
2.b-
4b-[
=40
4b-]
2b-
4b-[
=41
4b-]
2b-
4b-
=42
4dd-
8cc
8b-
8g-
8a-
4b-
=43
1b-
=44
4r
4e-
2ee-[
=45
4ee-]
4e-
2ee-[
=46
4ee-]
12ee-
12ee-
12ee-
4ee-
12ee-
12ee-
12ee-
=47
4ee-
12ee-
12ee-
12ee-
2ee-
=48
4r
4a-
2aa-[
=49
4aa-]
4a-
2aa-[
=50
4aa-]
12aa-
12aa-
12aa-
4aa-
12aa-
12aa-
12aa-
=51
4aa-
12aa-
12aa-
12aa-
2aa-
=52
4r
4gg
4r
4ff
=53
4r
4ee-
4r
4ff
=54
4r
4gg
4r
4ff
=55
4r
4ee-
4r
4ff
=56
4r
4ccc
4r
4bb-
=57
4r
4aa-
4r
4bb-
=58
4r
4ccc
4r
4bb-
=59
4r
4aa-
4r
4bb-
=60
2eee
2eee
=61
2eee
2eee
=62
4eee-
8fff
8eee-
8bb-
8ddd
4eee-
=63
1eee-
=64
2ddd
2ddd
=65
2ddd
2ddd
=66
4ccc#
8ddd
8ddd-
8bb-
8ccc
4ddd-
=67
1ddd-
=68
2d
2d
=69
1r
=70
2g
2g
=71
1r
=72
2A
2A
=73
1r
=74
2d
2d
=75
1r
=76
1G
=77
1g[
=78
4g]
8a
8g
8e-
8f
4g
=79
1g[
=80
4g]
4G
2G
=81
2r
4r
4gg
=82
4gg
4g
2g
=83
1r
=84
2r
4r
4gg
=85
4gg
4g
2g
=86
2r
4r
4gg
=87
4gg
4g
2g
=88
2r
12aa-
12gg
12ff
12ee-
12dd
12cc
=89
2cc-
12aa-
12gg
12ff
12ee-
12dd
12cc
=90
2cc-
2r
=91
12aa-
12gg
12ff
12ee-
12dd
12cc
12cc-
12a-
12g
16f
16e-
16d
16c
=92
12B
12c
12d-
12d
12e-
12e
12f
12g-
12g
12a-
12a
12b-
=93
12cc-
12cc
12dd-
12dd
12ee-
12ee
12ff
12gg-
12gg
12aa-
12aa
12bb-
=94
4ccc-
4ee
4ee
4ccc-
=95
4ccc-
4ee
4ee
4ccc-
=96
4ccc-
8ddd-
8ccc-
8gg
8aa
4ccc-
=97
1ccc-
=98
4ccc-
4ee
4ee
4ccc-
=99
4ccc-
4ee
4ee
4ccc-
=100
4ccc-
4ee
4ccc-
4ee
=101
4ccc-
4ee
4ccc-
4ee
=102
12c
12g
12cc
12gg
12cc
12g
12c
12g
12cc
12gg
12cc
12g
=103
12c
12g
12cc
12gg
12cc
12g
12c
12g
12cc
12gg
12cc
12g
=104
2r
4ggg
8aaa-
8ggg
=105
8eee-
8fff
4ggg
2ggg
=106
2r
4bbb-
8aaa-
8ggg
=107
8eee-
8fff
4ggg
2ggg
=108
8ccc
8ddd
4eee-
2eee-
=109
8gg
8bb
4ccc
2ccc
=110
8ee-
8gg-
4gg
4gg
4cc
=111
2r
4gg
4cc
=112
2r
4ccc
4cc
=113
1r
=114
1c[
=115
2c]
4B-
4A-
=116
1c[
=117
2c]
4B-
4A-
=118
1d-
=119
1c
=120
1c-[
=121
2c-]
2r
=122
1e-[
=123
2e-]
4d-
4c-
=124
1e-[
=125
2e-]
4d-
4c-
=126
1B-[
=127
4B-]
4A-
4G
4A-
=128
1B-[
=129
2B-]
2r
=130
1e-[
=131
2e-]
4.c-
8B-
=132
2r
2e-[
=133
6e-]
6e
6d-
6c-
6d-
6B-
=134
2r
2e-
=135
2r
2e
=136
1f[
=137
2f]
2d-
=138
1c[
=139
2c]
4.A-
8G
=140
2r
2c[
=141
6c]
6d-
6B-
6A-
6B-
6G
=142
2r
2c
=143
2r
2d-
=144
2r
2d[
=145
8d]
8A
8B-
8c
8d
8e
8f
8g
=146
1a[
=147
2a]
4g
4f
=148
1a[
=149
2a]
4g
4f
=150
1b-
=151
1a
=152
1a-[
=153
2a-]
2r
=154
1cc[
=155
2cc]
4b-
4a-
=156
1cc[
=157
2cc]
4b-
4a-
=158
1cc
=159
2.b-
4a-
=160
1cc[
=161
2cc]
2r
=162
1ee-[
=163
2ee-]
4cc-
4b-
=164
2r
2ee-[
=165
6ee-]
6ee
6ee-
6cc-
6dd-
6b-
=166
2r
2ee-
=167
2r
2ee
=168
1ff[
=169
2ff]
2dd-
=170
1cc[
=171
2cc]
4a-
4g
=172
2r
2cc[
=173
6cc]
6dd-
6b-
6a-
6b-
6g
=174
2r
2cc
=175
2r
2dd-
=176
2r
2dd[
=177
8dd]
8a
8b-
8cc
8dd
8ee
8ff
8gg
=178
1aa[
=179
2aa]
4.gg
8ff
=180
1aa[
=181
2aa]
4.gg
8ff
=182
1bb-
=183
1aa
=184
1aa-[
=185
2aa-]
2r
=186
1ccc[
=187
2ccc]
4.bb-
8aa-
=188
1ccc[
=189
2ccc]
4.bb-
8aa-
=190
1ccc
=191
2.bb-
4aa-
=192
1ccc
=193
1ccc[
=194
2ccc]
2r
=195
1r
=196
1r
=197
1r
=198
1r
=199
1r
=200
1r
=201
2r
4r
4g
=202
4g
4c
4c
4g
=203
4g
4c
4c
4g
=204
4g
8a-
8g
8e-
8f
4g
=205
1g
=206
1r
=207
2r
4r
4g
=208
4b-
8a-
8g
8e-
8f
4g
=209
1g
=210
1r
=211
2r
4r
4a-
=212
1g
=213
2r
8r
16r
16a-
4b-
=214
1g
=215
2r
4r
12a-
12cc
12cc-
=216
2g
4r
12a-
12cc
12cc-
=217
2g
4r
12a-
12cc
12cc-
=218
2g
2ddd
=219
1r
=220
12g
12cc
12cc
12cc
12gg
12gg
12gg
12ccc
12ccc
12ccc
12gg
12gg
=221
12gg
12cc
12cc
12cc
12g
12g
12g
12c
12c
12c
12G
12G
=222
4r
2c
4c[
=223
4c]
2c
4c[
=224
4c]
2c
4c[
=225
4c]
2c
4c[
=226
4c]
2c
4c[
=227
4c]
2c
4cc
=228
4cc
8dd-
8cc
8a-
8b-
4cc
=229
2.cc
4c[
=230
4c]
2c
4c[
=231
4c]
2c
4cc
=232
4ee-
8dd-
8cc
8a-
8b-
4cc
=233
1cc
=234
4r
2e-
4e-[
=235
4e-]
2e-
4e-
=236
4e-
2e-
4e-[
=237
4e-]
2e-
4ee-
=238
4ee-
8ff
8ee-
8cc-
8dd-
4ee-
=239
2.ee-
4e-[
=240
4e-]
2e-
4e-[
=241
4e-]
2e-
4ee-
=242
4gg-
8ff
8ee-
8cc-
8dd-
4ee-
=243
1ee-
=244
4r
4a-
2aa-[
=245
4aa-]
4a-
2aa-[
=246
4aa-]
12aa-
12aa-
12aa-
4aa-
12aa-
12aa-
12aa-
=247
4aa-
12aa-
12aa-
12aa-
2aa-
=248
4r
4dd-
2ddd-[
=249
4ddd-]
4dd-
2ddd-[
=250
4ddd-]
12ddd-
12ddd-
12ddd-
4ddd-
12ddd-
12ddd-
12ddd-
=251
4ddd-
12ddd-
12ddd-
12ddd-
2ddd-
=252
4r
4ee-
4r
4ee-
=253
4r
4ee-
4r
4ee-
=254
4r
4ee-
4r
4ee-
=255
4r
4ee-
4r
4ee-
=256
4r
4aa-
4r
4aa-
=257
4r
4aa-
4r
4aa-
=258
4r
4aa-
4r
4aa-
=259
4r
4aa-
4r
4aa-
=260
2aa
2aa
=261
2aa
2aa
=262
4aa-
8bb-
8aa-
8ee-
8gg
4aa-
=263
1aa-
=264
2gg
2gg
=265
2gg
2gg
=266
4ff#
8gg
8gg-
8ee-
8ff
4gg-
=267
1gg-
=268
2g
2g
=269
1r
=270
2cc
2cc
=271
1r
=272
2d
2d
=273
1r
=274
2g
2g
=275
1r
=276
1c
=277
1cc[
=278
4cc]
8dd
8cc
8a-
8b-
4cc
=279
1cc[
=280
4cc]
4c
2c
=281
2r
4r
4ccc
=282
4ccc
4cc
2cc
=283
1r
=284
2r
4r
4ccc
=285
4ccc
4cc
2cc
=286
2r
4r
4ccc
=287
4ccc
4cc
2cc
=288
2r
12ddd-
12ccc
12bb-
12aa-
12gg
12ff
=289
2ee
12ddd-
12ccc
12bb-
12aa-
12gg
12ff
=290
2ee
2r
=291
12ddd-
12ccc
12bb-
12aa-
12gg
12ff
12ee
12dd-
12cc
16b-
16a-
16g
16f
=292
12e
12f
12g-
12g
12a-
12a
12b-
12cc-
12cc
12dd-
12dd
12ee-
=293
12ee
12ff
12gg-
12gg
12aa-
12aa
12bb-
12ccc-
12ccc
12ddd-
12ddd
12eee-
=294
4eee
4aa
4aa
4eee
=295
4eee
4aa
4aa
4eee
=296
4eee
8ggg-
8eee
8ccc
8ddd
4eee
=297
1eee
=298
4eee
4aa
4aa
4eee
=299
4eee
4aa
4aa
4eee
=300
4eee
4aa
4eee
4aa
=301
4eee
4aa
4eee
4aa
=302
12c
12f
12cc
12ff
12cc
12f
12c
12f
12cc
12ff
12cc
12f
=303
12c
12f
12cc
12ff
12cc
12f
12c
12f
12cc
12ff
12cc
12f
=304
2r
4ccc
8ddd-
8ccc
=305
8aa-
8bb-
4ccc
2ccc
=306
2r
4eee-
8ddd-
8ccc
=307
8aa-
8bb-
4ccc
2ccc
=308
12e-
12a-
12ee-
12aa-
12ee-
12a-
12e-
12a-
12ee-
12aa-
12ee-
12a-
=309
12e-
12a-
12ee-
12aa-
12ee-
12a-
12e-
12a-
12ee-
12aa-
12ee-
12a-
=310
2r
4eee-
8fff
8eee-
=311
8ccc
8ddd-
4eee-
2eee-
=312
2r
4aaa-
8eee-
8ddd-
=313
8ccc
8ddd-
4eee-
2eee-
=314
8aa-
8bb-
4ccc
2ccc
=315
8ee-
8gg
4aa-
2aa-
=316
8cc
8dd-
4ee-
4ee-
4a-
=317
2r
4ee-
4a-
=318
2r
4ee-
4a-
=319
2r
4ee-
8a-
8ee
=320
1ee[
=321
2ee]
4.dd
8cc
=322
1ee[
=323
2ee]
4.dd
8cc
=324
1ff
=325
1ee
=326
1ee-[
=327
2ee-]
2r
=328
1gg[
=329
2gg]
4.ff
8ee-
=330
1gg[
=331
2gg]
4.ff
8ee-
=332
1dd[
=333
4dd]
4cc
4b
4cc
=334
1dd[
=335
2dd]
2r
=336
1gg[
=337
2gg]
4.ee-
8dd
=338
2r
2gg[
=339
6gg]
6aa-
6ff
6ee-
6ff
6dd
=340
2r
2gg
=341
2r
2aa-
=342
2dd
2aa[
=343
2aa]
2ff
=344
1ee[
=345
2ee]
4.cc
8cc-
=346
2r
2ee[
=347
6ee]
6ff
6dd
6cc
6dd
6cc-
=348
2r
2ee
=349
2r
2ff
=350
2cc-
2gg-[
=351
4gg-]
16d
16e
16g-
16a-
16a
16cc-
16dd-
16dd
16ee
32.gg-
64aa-[
32aa-]
32aa[
64aa]
32.ccc-
=352
1ddd-[
=353
2ddd-]
4.ccc-
8aa
=354
1ddd-[
=355
2ddd-]
4.ccc-
8aa
=356
1ddd
=357
1ddd-
=358
1ccc[
=359
2ccc]
2r
=360
1eee[
=361
2eee]
4.ddd
8ccc
=362
1eee[
=363
12eee]
12ddd
12ccc
12gg
12ee
12dd
12cc
12g
12e
12d
12c
12G
=364
1e[
=365
1e]
=366
1d[
=367
2.d]
4c
=368
4c
4G
4G
4c
=369
4c
4G
4G
4c
=370
4c
8d
8c
8A
8B
4c
=371
1c
=372
8cc
8cc
8cc
8cc
8dd-
8dd-
8dd-
8dd-
=373
8dd
8dd
8dd
8dd
8ee-
8ee-
8ee-
8ee-
=374
8ee
8ee
8ee
8ee
8ff
8ff
8ff
8ff
=375
8gg-
8gg-
8gg-
8gg-
8gg
8gg
8gg
8gg
=376
4cc
4g
4g
4cc
=377
4cc
4g
4g
4cc
=378
4cc
8dd
8cc
8a
8b
4cc
=379
1cc
=380
8ccc
8ccc
8ccc
8ccc
8ddd-
8ddd-
8ddd-
8ddd-
=381
8ddd
8ddd
8ddd
8ddd
8eee-
8eee-
8eee-
8eee-
=382
8eee
8eee
8eee
8eee
8fff
8fff
8fff
8fff
=383
8ggg-
8ggg-
8ggg-
8ggg-
8ggg
8ggg
8ggg
8ggg
=384
4aaa-
4fff
4fff
4aaa-
=385
4aaa-
4fff
4fff
4aaa-
=386
4aaa-
8bbb-
8aaa-
8fff
8ggg-
4aaa-
=387
1aaa-
=388
4r
4gg
2r
=389
4r
4gg
2r
=390
2r
4ggg
8aaa
8ggg
=391
8eee
8fff
4ggg
2ggg
=392
8ccc
8ddd
4eee
2eee
=393
8gg
8bb
4ccc
2ccc
=394
8ee
8ff
4gg
4gg
4cc
=395
2r
4gg
4cc
=396
2r
4gg
4cc
=397
2r
4gg
4cc
=398
2r
2gg
=399
2cc
2ccc
=400
1c
=401
1c[
=402
2c]
2r
==
*-
